X: 14579
T: Gan Ainm
R: reel
M: 4/4
K: Gmajor
e2ge dBAB|G3B dG (3Bcd|fgge dG (3Bcd|egdB ABdg|
e2ge edBA|G2BG dGBd|gbag gedB|1 AdBA GA (3Bcd:|2 AdBA G3d||
eGGd GGeG|GdGB AGEd|eGGd (3Bcd e2|gedB A3d|
eGG2 (3Bcd e2|(3gfg bg agge|dG (3Bcd gedB|1 A3B G3d:|2 A3B GA (3Bcd||
e2ge dG (3Bcd|b3g abag|egge dgba|~a2f2 ~g3f|
egge dG (3Bcd|ab~b2 gbag|e2ge dgba|~a2f2 gagf||

